Obsidian-SemiLight/actions/22s/favorite.svg

<svg viewBox="0 0 22 22" xmlns="http://www.w3.org/2000/svg"><path d="m11 3-2.477 5.266-5.523.844 4 4.1-.945 5.79 4.945-2.734 4.945 2.734-.945-5.79 4-4.1-5.523-.844z" fill="#4d4d4d"/></svg>

<svg xmlns="http://www.w3.org/2000/svg" viewBox="0 0 22 22">
  <defs id="defs3051">
    <style type="text/css" id="current-color-scheme">
      .ColorScheme-Text {
        color:#4d4d4d;
      }
      </style>
  </defs>
 <path 
    style="fill:currentColor;fill-opacity:1;stroke:none" 
    d="M 11,3 8.523,8.266 3,9.11 7,13.21 6.055,19 11,16.266 15.945,19 15,13.21 19,9.11 13.477,8.266 11,3 Z"
    class="ColorScheme-Text"
    />  
</svg>
